X: 1
T: The March Of Saint Timothy
R: march
Z: JH via thesession.org
M: 4/4
L: 1/8
K: Gmaj
|:"G"B3c d2B2 |"D7"A3B c2A2 |"Em"G3A B2G2 |"Bm"G2F2E2D2 |"C"E3F G2E2 |
"G"D2G2B2d2 |1"Am"c2B2 A2G2 |"D"F2A2D2c2 :|2"Am"cBAG "D7"F2A2 | "G"G6 ||
|: d2 |"D7"c2d2 A2c2 | F2A2 D2d2 |"G"B2d2 G2B2 | D2G2 B,2d2 |
"D7"c2d2 A2c2 | F2A2 D2F2 |"G"G2"tacet"D2 E2F2 | G2A2 B2d2 |
"D7"c2d2 A2c2 | F2A2 D2d2 |"G"B2d2 G2B2 | D2G2 B,2D2 |
"C"E3F G2E2 |"G"D2G2 B2d2 |"D7"cBAG F2A2|"G"G6z2 |]
